X: 10924
T: Druids Mountain, The
R: jig
M: 6/8
K: Aminor
|:"Am"age "Dm"def|"FM7"edc "G"B/c/dB|"Am"cAE "Dm7"FAc|"G"GBd geg|
"Am"age "FM7"cde|"Dm"fed "G"B/c/dB|"Am"cAE "Dm7"FAc|"G"BAG "Am"A3:|
|:"Dm"A2A ABc|"G"BAG E2D|"Am"EAc "Dm"FAd|"G"GBd ged|
"Am"e2e "Am7"gea|"FM7"c'ba "G"ged|"Am"age "Dm"deg|"Em"c2B "Am"A3:|

